%
OLateral-2 - ( FEATURECAM - FANUC )
( LATERAL )
( SETUP2 - 11/22/2022 - 14:47:41 )
( ESTIMATED MACHINE TIME = 3:25.3 )
N35 G00 G20 G17 G40 G49 G80 G94
N40 G91 G28 Z0

N45 ( FACE FINISH FACE1 )
N50 T1 M6
N55 G00 G55 G90 X3.9372 Y-1.4175 S5820 M03
N60 G43 H1 Z0.9843 M08
N65 Z0.1181
N70 G01 Z0. F131.0
N75 X-3.9372 
N80 Y0.3148 
N85 X3.9372 
N90 G00 Z0.9843
N95 M5
N100 G91 G28 Z0 M09
N105 G28 X0 Y0
N110 G49 G90
N115 M01

N120 ( SPOTDRILL  HOLE1 )
N125 T2 M06
N130 G94
N135 G00 G55 X-1.5945 Y0.9681 S6737 M03
N140 G43 H2 Z0.9843 M08
N145 G81 G98 Z-0.1395 R0.1181 F14.3
N150 G80
N155 Y-0.2523
N160 G81 G98 Z-0.1395 R0.1181 F14.3
N165 G80
N170 X-0.374 Y0.9681
N175 G81 G98 Z-0.1395 R0.1181 F14.3
N180 G80
N185 Y-0.2523
N190 G81 G98 Z-0.1395 R0.1181 F14.3
N195 G80
N200 M5
N205 G91 G28 Z0 M09
N210 G28 X0 Y0
N215 G49 G90
N220 M01

N225 ( DRILL  HOLE1 )
N230 T3 M06
N235 G94
N240 G00 G55 X-1.5945 Y0.9681 S6790 M03
N245 G43 H3 Z0.9843 M08
N250 G81 G98 Z-0.0787 R0.1181 F14.3
N255 G80
N260 Y-0.2523
N265 G81 G98 Z-0.0787 R0.1181 F14.3
N270 G80
N275 X-0.374 Y0.9681
N280 G81 G98 Z-0.0787 R0.1181 F14.3
N285 G80
N290 Y-0.2523
N295 G81 G98 Z-0.0787 R0.1181 F14.3
N300 G80
N305 M5
N310 G91 G28 Z0 M09
N315 G28 X0 Y0
N320 G49 G90
N325 M01

N330 ( SPOTDRILL  HOLE3 )
N335 T4 M06
N340 G94
N345 G00 G55 X-0.9843 Y0.3579 S2820 M03
N350 G43 H4 Z0.9843 M08
N355 G81 G98 Z-0.3183 R0.1181 F14.3
N360 G80

N365 ( SPOTDRILL  HOLE4 )
N370 Y-0.3937 S2182 
N375 G81 G98 Z-0.404 R0.1181 F14.3
N380 G80
N385 M5
N390 G91 G28 Z0 M09
N395 G28 X0 Y0
N400 G49 G90
N405 M01

N410 ( DRILL  HOLE3 )
N415 T5 M06
N420 G94
N425 G00 G55 X-0.9843 Y0.3579 S2876 M03
N430 G43 H5 Z0.9843 M08
N435 G81 G98 Z-0.2117 R0.1181 F14.3
N440 G80
N445 M5
N450 G91 G28 Z0 M09
N455 G28 X0 Y0
N460 G49 G90
N465 M01

N470 ( DRILL  HOLE4 )
N475 T6 M06
N480 G94
N485 G00 G55 X-0.9843 Y-0.3937 S1527 M03
N490 G43 H6 Z0.9843 M08
N495 G81 G98 Z-0.0787 R0.1181 F14.3
N500 G80
N505 M5
N510 G91 G28 Z0 M09
N515 G28 X0 Y0
N520 G49 G90
N525 M01

N530 ( SIDE FINISH SIDE1 )
N535 T7 M06
N540 G94
N545 G00 G55 X3.1372 Y-1.0197 S3819 M03
N550 G43 H7 Z0.9843 M08
N555 Z0.1181
N560 G01 Z-0.0787 F22.9
N565 X2.8622 Y-1.4961 F45.8
N570 G02 X2.2843 Y-2.0748 I-0.5787 J0. F68.7
N575 G01 X1.8084 Y-2.3505 F45.8
N580 G00 Z0.9843
N585 X1.8072 Y2.3498
N590 Z0.1181
N595 G01 Z-0.0787 F22.9
N600 X2.2835 Y2.0748 F45.8
N605 G02 X2.8622 Y1.4961 I0. J-0.5787 F68.7
N610 G01 X3.1372 Y1.0197 F45.8
N615 G00 Z0.9843
N620 X-3.1372 
N625 Z0.1181
N630 G01 Z-0.0787 F22.9
N635 X-2.8622 Y1.4961 F45.8
N640 G02 X-2.2835 Y2.0748 I0.5787 J0. F68.7
N645 G01 X-1.8072 Y2.3498 F45.8
N650 G00 Z0.9843
N655 X-1.8084 Y-2.3505
N660 Z0.1181
N665 G01 Z-0.0787 F22.9
N670 X-2.2843 Y-2.0748 F45.8
N675 G02 X-2.8622 Y-1.4961 I0.0008 J0.5787 F68.7
N680 G01 X-3.1372 Y-1.0197 F45.8
N685 G00 Z0.9843
N690 M5
N695 G91 G28 Z0 M09
N700 G28 X0 Y0
N705 G49 G90
N710 M01

N715 ( SIDE FINISH SIDE2 )
N720 T9 M06
N725 G94
N730 G00 G55 X-0.8237 Y-1.1216 S7000 M03
N735 G43 H9 Z0.9843 M08
N740 Z0.1181
N745 G01 Z0.0012 F7.9
N750 X-0.9809 Y-1.2052 F15.8
N755 X-0.8154 Y-1.1172 Z-0.0148 F7.9
N760 X-0.9809 Y-1.2052 Z-0.0308 
N765 X-0.8154 Y-1.1172 Z-0.0468 
N770 X-0.9809 Y-1.2052 Z-0.0628 
N775 X-0.8154 Y-1.1172 Z-0.0787 
N780 X-0.8237 Y-1.1216 F15.8
N785 X-0.8177 Y-1.1189 
N790 G03 X-0.8121 Y-1.1155 I-0.024 J0.0456 F7.9
N795 G01 X-0.5002 Y-0.8971 F15.8
N800 G03 X-0.5146 Y-0.8765 I-0.0072 J0.0103 F7.9
N805 G01 X-1.1596 Y-1.3282 F15.8
N810 G03 X-1.1452 Y-1.3487 I0.0072 J-0.0103 F7.9
N815 G01 X-0.7153 Y-1.0477 F15.8
N820 G03 X-0.7102 Y-1.0436 I-0.0296 J0.0422 F7.9
N825 G01 X-0.7056 Y-1.0389 F15.8
N830 G00 Z0.9843
N835 X0.689 Y1.192
N840 Z0.1181
N845 G01 Z0.0012 F7.9
N850 X0.8765 Z-0.0148 
N855 X0.689 Z-0.0308 
N860 X0.8765 Z-0.0468 
N865 X0.689 Z-0.0628 
N870 X0.8765 Z-0.0787 
N875 X0.689 F15.8
N880 X0.6825 Y1.1932 
N885 G03 X0.676 Y1.1937 I-0.0065 J-0.0511 F7.9
N890 G01 X0.1969 F15.8
N895 G03 X0.1969 Y1.1686 I0. J-0.0125 F7.9
N900 G01 X1.1811 F15.8
N905 G03 X1.1811 Y1.1937 I0. J0.0125 F7.9
N910 G01 X0.5579 F15.8
N915 G03 X0.5513 Y1.1932 I0. J-0.0516 F7.9
N920 G01 X0.5449 Y1.192 F15.8
N925 G00 Z0.9843
N930 X0.689 Y0.6014
N935 Z0.1181
N940 G01 Z0.0012 F7.9
N945 X0.8765 Z-0.0148 
N950 X0.689 Z-0.0308 
N955 X0.8765 Z-0.0468 
N960 X0.689 Z-0.0628 
N965 X0.8765 Z-0.0787 
N970 X0.689 F15.8
N975 X0.6825 Y0.6027 
N980 G03 X0.676 Y0.6031 I-0.0065 J-0.0511 F7.9
N985 G01 X0.1969 F15.8
N990 G03 X0.1969 Y0.578 I0. J-0.0125 F7.9
N995 G01 X1.1811 F15.8
N1000 G03 X1.1811 Y0.6031 I0. J0.0125 F7.9
N1005 G01 X0.5579 F15.8
N1010 G03 X0.5513 Y0.6027 I0. J-0.0516 F7.9
N1015 G01 X0.5449 Y0.6014 F15.8
N1020 G00 Z0.9843
N1025 M5
N1030 G91 G28 Z0 M09
N1035 G28 X0 Y0
N1040 G49 G90
N1045 M01

N1050 ( SIDE ROUGH2 SIDE3 )
N1055 T10 M06
N1060 G94
N1065 G00 G55 X0.6969 Y-0.3976 S4965 M03
N1070 G43 H10 Z0.9843 M08
N1075 Z0.1181
N1080 G01 Z0.0012 F24.8
N1085 X0.1969 Z-0.0255 
N1090 X0.6969 Z-0.0521 
N1095 X0.1969 Z-0.0787 
N1100 X1.1811 F49.6
N1105 G03 X1.1811 Y-0.3898 I0. J0.0039
N1110 G01 X0.1969 
N1115 G03 X0.1969 Y-0.3976 I0. J-0.0039

N1120 ( SIDE FINISH SIDE3 )
N1125 G01 S7000 
N1130 X0.2441 Y-0.4339 F42.0
N1135 G03 X0.3023 Y-0.4469 I0.0582 J0.1246 F21.0
N1140 G01 X1.1811 F42.0
N1145 G03 X1.1811 Y-0.3406 I0. J0.0531 F21.0
N1150 G01 X0.1969 F42.0
N1155 G03 X0.1969 Y-0.4469 I0. J-0.0531 F21.0
N1160 G01 X0.4204 F42.0
N1165 G03 X0.4785 Y-0.4339 I0. J0.1375 F21.0
N1170 G01 X0.5258 Y-0.3976 F42.0
N1175 G00 Z0.9843
N1180 M5
N1185 G0 G91 G28 Z0 M09
N1190 G28 X0 Y0
N1195 G49 G90
N1200 M30
%
