%
OPieza_biela-2 - ( FEATURECAM - FANUC )
( PIEZA_BIELA )
( SETUP2 - 11/22/2022 - 14:28:14 )
( ESTIMATED MACHINE TIME = 4:08.2 )
N35 G00 G20 G17 G40 G49 G80 G94
N40 G91 G28 Z0

N45 ( FACE FINISH FACE1 )
N50 T1 M6
N55 G00 G55 G90 X1.9963 Y-0.1498 S5820 M03
N60 G43 H1 Z0.9843 M08
N65 Z0.1181
N70 G01 Z0. F131.0
N75 X-1.9963 
N80 G00 Z0.9843
N85 M5
N90 G91 G28 Z0 M09
N95 G28 X0 Y0
N100 G49 G90
N105 M01

N110 ( SPOTDRILL  HOLE1 )
N115 T2 M06
N120 G94
N125 G00 G55 X0. Y0.689 S3819 M03
N130 G43 H2 Z0.9843 M08
N135 G81 G98 Z-0.125 R0.1181 F14.3
N140 G80
N145 M5
N150 G91 G28 Z0 M09
N155 G28 X0 Y0
N160 G49 G90
N165 M01

N170 ( DRILL  HOLE1 )
N175 T3 M06
N180 G94
N185 G00 G55 X0. Y0.689 S1697 M03
N190 G43 H3 Z0.9843 M08
N195 G81 G98 Z-0.4724 R0.1181 F14.3
N200 G80
N205 M5
N210 G91 G28 Z0 M09
N215 G28 X0 Y0
N220 G49 G90
N225 M01

N230 ( SPOTDRILL  HOLE2 )
N235 T4 M06
N240 G94
N245 G00 G55 X0. Y-0.2953 S4331 M03
N250 G43 H4 Z0.9843 M08
N255 G81 G98 Z-0.2161 R0.1181 F14.3
N260 G80
N265 Y-0.8858
N270 G81 G98 Z-0.2161 R0.1181 F14.3
N275 G80
N280 M5
N285 G91 G28 Z0 M09
N290 G28 X0 Y0
N295 G49 G90
N300 M01

N305 ( DRILL  HOLE2 )
N310 T5 M06
N315 G94
N320 G00 G55 X0. Y-0.2953 S4483 M03
N325 G43 H5 Z0.9843 M08
N330 G83 G98 Z-0.5577 R0.1181 Q0.213 F14.3
N335 G80
N340 Y-0.8858
N345 G83 G98 Z-0.5577 R0.1181 Q0.213 F14.3
N350 G80
N355 M5
N360 G91 G28 Z0 M09
N365 G28 X0 Y0
N370 G49 G90
N375 M01

N380 ( SIDE ROUGH1 SIDE1 )
N385 T6 M06
N390 G94
N395 G00 G55 X-0.0606 Y2.021 S2482 M03
N400 G43 H6 Z0.9843 M08
N405 Z0.1181
N410 G01 Z-0.4724 F24.8
N415 X0.3051 Y1.6102 F49.6
N420 G02 X0.9213 Y0.9941 I-0.3051 J-0.9213
N425 G01 X1.3321 Y0.6284 
N430 X1.2843 Y0.8017 
N435 X0.9213 Y0.3885 
N440 X0.7736 Y-0.3497 
N445 Y-0.8858 
N450 G02 X0.2715 Y-1.6102 I-0.7736 J0.
N455 G01 X-0.078 Y-2.0349 
N460 X0.078 
N465 X-0.2715 Y-1.6102 
N470 G02 X-0.7736 Y-0.8858 I0.2715 J0.7244
N475 G01 Y-0.3497 
N480 X-0.9213 Y0.3885 
N485 X-1.2843 Y0.8017 
N490 X-1.3321 Y0.6284 
N495 X-0.9213 Y0.9941 
N500 G02 X-0.3051 Y1.6102 I0.9213 J-0.3051
N505 G01 X0.0606 Y2.021 

N510 ( SIDE FINISH SIDE1 )
N515 S3819 
N520 X-0.4763 Y1.8852 F45.8
N525 X0. Y1.6102 
N530 G02 X0.9213 Y0.689 I0. J-0.9213 F68.7
N535 G01 X1.1963 Y0.2127 F45.8
N540 Y1.1653 
N545 X0.9213 Y0.689 
N550 G02 X0.9116 Y0.5909 I-0.5 J0. F68.7
N555 G01 X0.7244 Y-0.3448 F45.8
N560 Y-0.8858 
N565 G02 X0. Y-1.6102 I-0.7244 J0. F68.7
N570 G01 X-0.4763 Y-1.8852 F45.8
N575 X0.4763 
N580 X0. Y-1.6102 
N585 G02 X-0.7244 Y-0.8858 I0. J0.7244 F68.7
N590 G01 Y-0.3448 F45.8
N595 X-0.9116 Y0.5909 
N600 G02 X-0.9213 Y0.689 I0.4903 J0.0981 F68.7
N605 G01 X-1.1963 Y1.1653 F45.8
N610 Y0.2127 
N615 X-0.9213 Y0.689 
N620 G02 X0. Y1.6102 I0.9213 J0. F68.7
N625 G01 X0.4763 Y1.8852 F45.8
N630 G00 Z0.9843
N635 M5
N640 G91 G28 Z0 M09
N645 G28 X0 Y0
N650 G49 G90
N655 M01

N660 ( SIDE ROUGH1 SIDE2 )
N665 T7 M06
N670 G94
N675 G00 G55 X0.0472 Y0.1119 S7000 M03
N680 G43 H7 Z0.9843 M08
N685 Z0.1181
N690 G01 Z0.0012 F12.0
N695 X-0.0711 Y0.0883 Z-0.0082 
N700 X0.0472 Y0.1119 Z-0.0175 
N705 X-0.0711 Y0.0883 Z-0.0268 
N710 X0.0472 Y0.1119 Z-0.0362 
N715 X-0.0711 Y0.0883 Z-0.0455 
N720 X0.0472 Y0.1119 Z-0.0548 
N725 X-0.0711 Y0.0883 Z-0.0642 
N730 X0.0472 Y0.1119 Z-0.0735 
N735 X-0.0711 Y0.0883 Z-0.0828 
N740 X0.0472 Y0.1119 Z-0.0921 
N745 X-0.0711 Y0.0883 Z-0.1015 
N750 X0.0472 Y0.1119 Z-0.1108 
N755 X-0.0711 Y0.0883 Z-0.1201 
N760 X0.0472 Y0.1119 Z-0.1295 
N765 X-0.0711 Y0.0883 Z-0.1388 
N770 X0.0472 Y0.1119 Z-0.1481 
N775 X-0.0711 Y0.0883 Z-0.1575 
N780 X-0.015 Y0.0995 F24.1
N785 X-0.0138 Y0.0935 
N790 G02 X0.0138 Y0.0935 I0.0138 J-0.3888
N795 G01 X0.0158 Y0.1033 
N800 G02 X-0.0158 Y0.1033 I-0.0158 J0.5857
N805 G01 X-0.015 Y0.0995 
N810 G02 X-0.0374 Y0.0658 I-0.0281 J-0.0056
N815 G03 X-0.0599 Y0.0322 I0.0056 J-0.0281
N820 G01 X-0.0597 Y0.0311 
N825 G02 X0.0597 Y0.0311 I0.0597 J-0.3264
N830 G01 X0.087 Y0.1675 
N835 G02 X-0.087 Y0.1675 I-0.087 J0.5215
N840 G01 X-0.0599 Y0.0322 
N845 X0.0472 Y0.1119 
N850 X-0.0711 Y0.0883 Z-0.1656 F12.0
N855 X0.0472 Y0.1119 Z-0.175 
N860 X-0.0711 Y0.0883 Z-0.1843 
N865 X0.0472 Y0.1119 Z-0.1936 
N870 X-0.0711 Y0.0883 Z-0.203 
N875 X0.0472 Y0.1119 Z-0.2123 
N880 X-0.0711 Y0.0883 Z-0.2216 
N885 X0.0472 Y0.1119 Z-0.231 
N890 X-0.0711 Y0.0883 Z-0.2403 
N895 X0.0472 Y0.1119 Z-0.2496 
N900 X-0.0711 Y0.0883 Z-0.259 
N905 X0.0472 Y0.1119 Z-0.2683 
N910 X-0.0711 Y0.0883 Z-0.2776 
N915 X0.0472 Y0.1119 Z-0.287 
N920 X-0.0711 Y0.0883 Z-0.2963 
N925 X0.0472 Y0.1119 Z-0.3056 
N930 X-0.0711 Y0.0883 Z-0.315 
N935 X-0.015 Y0.0995 F24.1
N940 X-0.0138 Y0.0935 
N945 G02 X0.0138 Y0.0935 I0.0138 J-0.3888
N950 G01 X0.0158 Y0.1033 
N955 G02 X-0.0158 Y0.1033 I-0.0158 J0.5857
N960 G01 X-0.015 Y0.0995 
N965 G02 X-0.0374 Y0.0658 I-0.0281 J-0.0056
N970 G03 X-0.0599 Y0.0322 I0.0056 J-0.0281
N975 G01 X-0.0597 Y0.0311 
N980 G02 X0.0597 Y0.0311 I0.0597 J-0.3264
N985 G01 X0.087 Y0.1675 
N990 G02 X-0.087 Y0.1675 I-0.087 J0.5215
N995 G01 X-0.0599 Y0.0322 
N1000 X0.0472 Y0.1119 
N1005 X-0.0711 Y0.0883 Z-0.3231 F12.0
N1010 X0.0472 Y0.1119 Z-0.3324 
N1015 X-0.0711 Y0.0883 Z-0.3418 
N1020 X0.0472 Y0.1119 Z-0.3511 
N1025 X-0.0711 Y0.0883 Z-0.3604 
N1030 X0.0472 Y0.1119 Z-0.3698 
N1035 X-0.0711 Y0.0883 Z-0.3791 
N1040 X0.0472 Y0.1119 Z-0.3884 
N1045 X-0.0711 Y0.0883 Z-0.3978 
N1050 X0.0472 Y0.1119 Z-0.4071 
N1055 X-0.0711 Y0.0883 Z-0.4164 
N1060 X0.0472 Y0.1119 Z-0.4258 
N1065 X-0.0711 Y0.0883 Z-0.4351 
N1070 X0.0472 Y0.1119 Z-0.4444 
N1075 X-0.0711 Y0.0883 Z-0.4538 
N1080 X0.0472 Y0.1119 Z-0.4631 
N1085 X-0.0711 Y0.0883 Z-0.4724 
N1090 X-0.015 Y0.0995 F24.1
N1095 X-0.0138 Y0.0935 
N1100 G02 X0.0138 Y0.0935 I0.0138 J-0.3888
N1105 G01 X0.0158 Y0.1033 
N1110 G02 X-0.0158 Y0.1033 I-0.0158 J0.5857
N1115 G01 X-0.015 Y0.0995 
N1120 G02 X-0.0374 Y0.0658 I-0.0281 J-0.0056
N1125 G03 X-0.0599 Y0.0322 I0.0056 J-0.0281
N1130 G01 X-0.0597 Y0.0311 
N1135 G02 X0.0597 Y0.0311 I0.0597 J-0.3264
N1140 G01 X0.087 Y0.1675 
N1145 G02 X-0.087 Y0.1675 I-0.087 J0.5215
N1150 G01 X-0.0599 Y0.0322 
N1155 X-0.0421 Y0.0184 F14.4
N1160 G03 X-0.0199 Y0.0144 I0.0191 J0.0432 F7.2
N1165 G02 X0.0765 Y0.0055 I0.0199 J-0.3097 F20.0
N1170 G01 X0.1143 Y0.1948 F14.4
N1175 G02 X-0.1143 Y0.1948 I-0.1143 J0.4941 F17.4
N1180 G01 X-0.0765 Y0.0055 F14.4
N1185 G02 X0.0765 Y0.0055 I0.0765 J-0.3008 F20.0
N1190 G01 X0.0859 Y0.0524 F14.4
N1195 G03 X0.0849 Y0.0749 I-0.0463 J0.0093 F7.2
N1200 G01 X0.0736 Y0.0944 F14.4
N1205 G00 Z0.9843
N1210 M5
N1215 G91 G28 Z0 M09
N1220 G28 X0 Y0
N1225 G49 G90
N1230 M01

N1235 ( SIDE FINISH SIDE3 )
N1240 T9 M06
N1245 G94
N1250 G00 G55 X0. Y-0.5833 S7000 M03
N1255 G43 H9 Z0.9843 M08
N1260 Z0.1181
N1265 G01 Z0.0012 F5.3
N1270 X-0.0187 F10.5
N1275 X0.0438 Z-0.0043 F5.3
N1280 X-0.0187 Z-0.0097 
N1285 X0.0438 Z-0.0152 
N1290 X-0.0187 Z-0.0206 
N1295 X0.0438 Z-0.026 
N1300 X-0.0187 Z-0.0315 
N1305 X0.0438 Z-0.0369 
N1310 X-0.0187 Z-0.0424 
N1315 X0.0438 Z-0.0478 
N1320 X-0.0187 Z-0.0533 
N1325 X0.0438 Z-0.0587 
N1330 X-0.0187 Z-0.0641 
N1335 X0.0438 Z-0.0696 
N1340 X-0.0187 Z-0.075 
N1345 X0.0438 Z-0.0805 
N1350 X-0.0187 Z-0.0859 
N1355 X0.0438 Z-0.0914 
N1360 X-0.0187 Z-0.0968 
N1365 X0.0438 Z-0.1023 
N1370 X-0.0187 Z-0.1077 
N1375 X0.0438 Z-0.1131 
N1380 X-0.0187 Z-0.1186 
N1385 X0.0438 Z-0.124 
N1390 X-0.0187 Z-0.1295 
N1395 X0.0438 Z-0.1349 
N1400 X-0.0187 Z-0.1404 
N1405 X0.0438 Z-0.1458 
N1410 X-0.0187 Z-0.1512 
N1415 X0.0438 Z-0.1567 
N1420 X-0.0187 Z-0.1621 
N1425 X0.0438 Z-0.1676 
N1430 X-0.0187 Z-0.173 
N1435 X0.0438 Z-0.1785 
N1440 X-0.0187 Z-0.1839 
N1445 X0.0438 Z-0.1894 
N1450 X-0.0187 Z-0.1948 
N1455 X0.0438 Z-0.2002 
N1460 X-0.0187 Z-0.2057 
N1465 X0.0438 Z-0.2111 
N1470 X-0.0187 Z-0.2166 
N1475 X0.0438 Z-0.222 
N1480 X-0.0187 Z-0.2275 
N1485 X0.0438 Z-0.2329 
N1490 X-0.0187 Z-0.2384 
N1495 X0.0438 Z-0.2438 
N1500 X-0.0187 Z-0.2492 
N1505 X0.0438 Z-0.2547 
N1510 X-0.0187 Z-0.2601 
N1515 X0.0438 Z-0.2656 
N1520 X-0.0187 Z-0.271 
N1525 X0.0438 Z-0.2765 
N1530 X-0.0187 Z-0.2819 
N1535 X0.0438 Z-0.2873 
N1540 X-0.0187 Z-0.2928 
N1545 X0.0438 Z-0.2982 
N1550 X-0.0187 Z-0.3037 
N1555 X0.0438 Z-0.3091 
N1560 X-0.0187 Z-0.3146 
N1565 X0.0438 Z-0.32 
N1570 X-0.0187 Z-0.3255 
N1575 X0.0438 Z-0.3309 
N1580 X-0.0187 Z-0.3363 
N1585 X0.0438 Z-0.3418 
N1590 X-0.0187 Z-0.3472 
N1595 X0.0438 Z-0.3527 
N1600 X-0.0187 Z-0.3581 
N1605 X0.0438 Z-0.3636 
N1610 X-0.0187 Z-0.369 
N1615 X0.0438 Z-0.3745 
N1620 X-0.0187 Z-0.3799 
N1625 X0.0438 Z-0.3853 
N1630 X-0.0187 Z-0.3908 
N1635 X0.0438 Z-0.3962 
N1640 X-0.0187 Z-0.4017 
N1645 X0.0438 Z-0.4071 
N1650 X-0.0187 Z-0.4126 
N1655 X0.0438 Z-0.418 
N1660 X-0.0187 Z-0.4234 
N1665 X0.0438 Z-0.4289 
N1670 X-0.0187 Z-0.4343 
N1675 X0.0438 Z-0.4398 
N1680 X-0.0187 Z-0.4452 
N1685 X0.0438 Z-0.4507 
N1690 X-0.0187 Z-0.4561 
N1695 X0.0438 Z-0.4616 
N1700 X-0.0187 Z-0.467 
N1705 X0.0438 Z-0.4724 
N1710 X0. F10.5
N1715 X-0.004 Y-0.5824 
N1720 G03 X-0.0082 Y-0.5821 I-0.0051 J-0.034 F5.3
N1725 G02 X-0.0438 Y-0.5788 I0.0082 J0.2868 F13.4
N1730 G01 Y-0.6023 F10.5
N1735 G02 X0.0438 Y-0.6023 I0.0438 J-0.2835 F13.4
N1740 G01 Y-0.5788 F10.5
N1745 G02 X-0.0438 Y-0.5788 I-0.0438 J0.2835 F13.4
N1750 G01 Y-0.6023 F10.5
N1755 G02 X0.0411 Y-0.6019 I0.0438 J-0.2835 F13.4
N1760 G03 X0.0421 Y-0.602 I0.0012 J0.0085 F5.3
N1765 G01 X0.0432 Y-0.6019 F10.5
N1770 G00 Z0.9843
N1775 M5
N1780 G0 G91 G28 Z0 M09
N1785 G28 X0 Y0
N1790 G49 G90
N1795 M30
%
